@SIZE 1920 1080
@BACKGROUND 255 255 255
@POSITION 959 250
TURN 90
LOOP 270
    MOVE 3
    TURN 1
END LOOP

//LOOP 360
//    MOVE 3
//    TURN 1
//END LOOP
//LOOP 180
//    MOVE 2
//    TURN -1
//END LOOP
