@SIZE 800 800
@BACKGROUND 255 255 255
@POSITION 600 250
TURN 90
LOOP 360
    MOVE 1
    TURN 1
END LOOP
LOOP 360
    MOVE 2
    TURN 1
END LOOP
LOOP 360
    MOVE 3
    TURN 1
END LOOP
LOOP 360
    MOVE 4
    TURN 1
END LOOP
LOOP 360
    MOVE 5
    TURN 1
END LOOP
LOOP 360
    MOVE 1
    TURN -1
END LOOP
LOOP 360
    MOVE 2
    TURN -1
END LOOP
LOOP 360
    MOVE 3
    TURN -1
END LOOP
LOOP 360
    MOVE 4
    TURN -1
END LOOP
LOOP 360
    MOVE 5
    TURN -1
END LOOP
//LOOP 360
//    MOVE 3
//    TURN 1
//END LOOP
//LOOP 180
//    MOVE 2
//    TURN -1
//END LOOP
