@SIZE 1000 1000
@BACKGROUND 10 100 200
@POSITION 700	500  
COLOR 1 2 3

DEF x 100
DEF r 120
DEF g 120
DEF b 0
FUNC magic(step)
	DEF y 90
	LOOP 4
		MOVE step
		TURN y
	END LOOP
END FUNC

LOOP 15
	COLOR r g b
	CALL magic(x)
	TURN 20
	ADD x 30
	ADD r 5
	ADD g -5
END LOOP