@SIZE 1000 1000
@BACKGROUND 255 255 255
@POSITION 100 100
// TURN 0
CLOAK
LOOP 4
	MOVE 120
	LOOP 30
		MOVE 10
		COLOR 0 0 0
		LOOP 360
			
			MOVE 1
			TURN 1 
		END LOOP
		CLOAK
		MOVE 10
	END LOOP
	TURN 90
END LOOP


